X: 32099
T: Pernod, The
R: waltz
M: 3/4
K: Bminor
f2 B2 B>d|f3 ^e f>g|f>e ^d>e f>g|f2 f>e f>g|
a2 g2 f2|(3efe c3B|c>d e>f e>c|1 d2 B>d g>e:|2 d2 B2 B>A||
"Jumps octave in the repeat"
|:B>E E>G F>E|~B3e f>e|a3f f>e|f>d B3A|
G2 B>d c>B|(3F^EF B>d c2|c>d e>f e>c|1 d2 B2 B>A:|2 d2 B>d (3efg||

